X:4804
T:En Dro
C:Storvan
M:4/4
L:1/8
K:G
FDFA d2A2|cBAG F2D2|A2FA d2A2|1 cBAF G3D:|2  cBAF G3G||
|:A2GA E3F|G2FE F2D2|F2GA c2cB|1 AGEF D4:|2  AGEF D3D||
